X:1
T:Title
%%score { ( 1 3 ) | ( 2 4 ) }
L:1/8
Q:1/4=120
M:6/4
K:Db
V:1 treble nm="Grand Piano"
V:3 treble 
V:2 bass 
V:4 bass 
V:1
 F2 _F2 =F2 G2 F2 [EG]2 | [FA]2 [_F=G]2 [=FA]2 B6 | d2 c2 B2 [FA]2 F2 F2 | A2 G2 F2 [CE]6 | %4
w: Haldor~Lillenas * * * * *||||
 F2 _F2 =F2 G2 F2 [EG]2 |[M:13/8] z z z z z2 B-B-B-B- B2- B/ z/ | %6
w: ||
[M:6/4] [=GB]2 [GB]2 [GB]2 [GB]2 [Ge]2 [Gd]2 |[M:15/8] c3- c B2 A3- A6 | %8
w: ||
[M:6/4] [Fd]2 c2 B2 [FA]2 B2 [A,DF]2 | .[CA]6 z6 | e2 c2 B2 A2 B2 [CE]2 | .[DG]6 z6 | %12
w: ||||
 D2 F2 [FA]2 [Fd]2 [Gc]2 [Ad]2 |[M:15/8] e2 d-d B2 d3- d6 |[M:13/8] d2 c2 B2 A2 d3 d2 | %15
w: |||
[M:17/8] e-e-e- e3 [Fd]2 [Fd]-[Fd]-[Fd]-[Fd]-[Fd]-[Fd]- [Fd]3 |] %16
w: |
V:2
 [D,A,D]2 [D,=G,D]2 [D,A,D]2 [E,A,C]2 [E,A,C]2 [C,A,]2 | [D,A,]2 [D,A,]2 [D,D]2 [G,DG]6 | %2
 [G,B,G]2 [G,CG]2 [G,DG]2 [D,D]2 [D,A,D]2 [D,A,D]2 | [F,A,D]2 [E,A,C]2 [D,A,D]2 [A,,A,]6 | %4
 [D,A,D]2 [D,=G,D]2 [D,A,D]2 [E,A,C]2 [E,A,C]2 [C,A,]2 | %5
[M:13/8] [D,A,]2 [D,A,]2 [D,D]2 [G,DG]- [G,DG]3 [F,=D]3 | %6
[M:6/4] [E,E]2 [E,E]2 [E,E]2 [E,E]2 [E,B,]2 [E,E]2 | %7
[M:15/8][K:treble] [A,EG]3- [A,EG] [A,DG]2 [A,CG]3- [A,CG]6 | %8
[M:6/4][K:bass] z2[K:treble] F2 F2[K:bass] z2 F2 D,2 | E,2 E,2 [E,A,C]2[K:treble] [A,CE]6 | %10
 G2 G2 G2 G2 G2[K:bass] A,2 | D,2 D,2 [D,A,D]2 [D,A,D]4 [D,F,]2 | %12
 [D,F,]2 [D,A,D]2 [D,D]2 [D,A,]2 [E,A,]2 [F,A,]2 | %13
[M:15/8][K:treble] [G,B,G]2 [G,B,G]-[G,B,G] [G,DG]2 [G,B,G]3- [G,B,G]6 | %14
[M:13/8] [=G,B,_F]2 [G,CF]2 [G,DF]2 [A,D=F]2 [A,DF]3 [A,DF]2 | %15
[M:17/8] [A,CG]-[A,CG]-[A,CG]- [A,CG]3[K:bass] [D,D]2 [D,A,]-[D,A,]-[D,A,]-[D,A,]-[D,A,]-[D,A,]- [D,A,]3 |] %16
V:3
 x12 | x12 | x12 | x12 | x12 |[M:13/8] [FA]2 [_F=G]2 [=FA]2 z z z2 A3 |[M:6/4] x12 |[M:15/8] x15 | %8
[M:6/4] x12 | A,2 A,2 G2 G6 | x12 | B,2 B,2 F2 F4 D2 | x12 |[M:15/8] x15 |[M:13/8] x13 | %15
[M:17/8] x17 |] %16
V:4
 x12 | x12 | x12 | x12 | x12 |[M:13/8] x13 |[M:6/4] x12 |[M:15/8][K:treble] x15 | %8
[M:6/4][K:bass] [D,A,]6[K:treble][K:bass] .[D,A,]6 | x6[K:treble] x6 | [A,C]6 .[A,C]6[K:bass] | %11
 x12 | x12 |[M:15/8][K:treble] x15 |[M:13/8] x13 |[M:17/8] x6[K:bass] x11 |] %16

